X:3
T:Hommage a Jos. Bouchard (J-69)
I:Hommage a Jos. Bouchard	J-69	C/Am	jig
R:jig
C:Philippe Bruneau
H:Written by Philippe Bruneau, in honor of Joe Bouchard
D:From Sam Bartlett, then Mario Loiselle
Z:Translated to abc by Debbie Knight
M:6/8
K:C
"C"E3 EFA| G3GAB| cBc "F"dcA| "A"G2G "Am7"EGc| "Dm"B2B "G"GBd| 
 "Dm"f2f "G"GBd|1 "Dm"bag "G"fed| "C"cdc "G7"BAG:|[2 "G"bag fed| "G"c3-"E7"cAB|]
K: Am
"Am"c2c cBc| AEE EAB| c2c cBc| "Bm7"BEE "E7"E3| "Bm7"d2d dcd|"E7"BEE E^GB|
"E"eEE "Fdim"dEE| "F#dim"cEE "E7/G#"BAB |"Am"c2c cBc| AEE EAB| c2c cBc|
"Bm7"BEE "E7"E3| "Bm7"d2d dcd| "E7"BEE E^GB| "E7"efe dcB|1 "Am7"A3 "G7"G3 |][2 "A - Last time"A3-A3|]
%%text 01/23/05 

#include "LeftHeader.h"
% ---------- set 58 ----------
% Moon and Seven Stars (D)/ One Horned Sheep (G) 

%%text Set 58
%%vskip -1cm
